!!!OTL: 359. Tod des Herzogs von Braunschweig-Oels (16. Juni 1815). / [Lied der schwarzen Husaren.]
!!!ARE: Europa, Mitteleuropa, Deutschland, Berlin
!!!SCT: E0359A
!!!TXL: @@DE
!!!YEM: Copyright 1995, estate of Helmut Schaffrath.
**kern	**text
*ICvox	*
*M4/4	*
*met(c)	*
*k[]	*
*C:	*
!LO:TX:a:t=Mäßig langsam.	!
!LO:TX:a:t=Mel, aus Berlin, von einem alten Soldaten 1859 gehört.	!
{4g	Und
=1	=1
4.cc	als
8g	der
4e	er-
4c	-ſte
=2	=2
2g	Schuß
4r}	.
{8bL	un-
8ccJ	-ſerm
=3	=3
4dd	Her-
4cc	-ʒog_ging
8bL	durch
8aJ	.
8gL	die
8fJ	.
=4	=4
2e	Bruſt,
4r}	.
{4cc	Unſer
=5	=5
4dd	Her-
8dd	-ʒog
8dd	und
4dd	der
8cc	iſt
8dd	ver-
=6	=6
(4ee	-lo-
4dd)	.
4cc}	-ren,
{4cc	ach
=7	=7
4dd	wä-
8dd	-ren
8dd	wir
4dd	Schwarʒen
8cc	nicht
8dd	ge-
=8	=8
(4ee	-bo-
4dd)	.
4cc}	-ren!
{4g	Wir
=9	=9
4cc	Schwarʒen
8cc	.
8cc	wir
8eeL	ru-
8ddJ	.
8cc	-fen
8b	Hur-
=10	=10
2a	-rah!
4r}	.
{4a	ganʒ
=11	=11
4g	mu-
4g	-thig
(4g	ſtehn
8a)	.
8b/	wir
=12	=12
2cc	da!
4r}	.
==	==
!!!AGN: historisches Lied, Krieg gegen Napoleon (1815)
!!!ONB: ESAC (Essen Associative Code) Database: ERK1
!!!AMT: simple quadruple
!!!AIN: vox
!!!EED: Helmut Schaffrath
!!!EEV: 1.0
!!!GTL: Historische Lieder
!!!URL-scan: https://rosdok.uni-rostock.de/mcrviewer/recordIdentifier/rosdok_ppn745177662/iview2/phys_0180.iview2?x=-554.0825755873236&y=1971.0907626610715&scale=0.46959934367803174&rotation=0&layout=singlePageLayout
!!!ENC: Anna Maria Matuszewska
!!!EEV: 2024/09/12
*-	*-
